X:1
T:[ID 1-13]
T:[ID 1-13]
T:Bezeichnung standardisiert: Menuett Men\"uet
T:Urheber unbekannt Datum in der hier transkribierten schriftlichen Quelle: vermutlich vor 1767
C:Urheber unbekannt
C:Datum in der hier transkribierten schriftlichen Quelle: vermutlich vor 1767
L:1/8
M:4/4
K:D
V:1 treble 
V:1
 (fa)(de)(cd) | e3 f g2 | (fa)(de)(cd) | e4 A2 | Bg-(gf)(ed) | (ca)a(gf)e | f2 d2 c2 | d4 :: %8
 fgfedc | B6 | (gf)(gf)(ed) | c4 B2 | AB _c2 B2 | _c4 B2 | A_ffedc | BA ^G3 A | A6 | (fa)(de)(cd) | %18
 e3 fga | (fa)(de)(cd) |"^e" f4 A2 | Bggfed | (ca)(ag)(fe) | f2 d2 c2 | d4 :|"F" Ae-(ed)(cB) | %26

